X: 305768
M: 6/8
L: 1/8
K: G
(3(d/e/f/) |\
{g}g2g {g}g2g | {g}g2g {g}g2g | bag agf | ggg g2z |\
{a}a2a {a}a2a | {a}a2a {a}a2a | agf ed^c | (ddd d2) H|]
d3 e2d | dgz dg B/c/ | d3 e2d | daz da B/c/ |\
d3 e2d | dbz agz | egz dgz | faz def | g3- "^D.C."g2 |]
d3 d3 | d3 d^cd | B3 B3 | B3 Bcd |\
e3 e3 | e3 gfe | d3 d3 | d3 dcB |\
g2[fd] g2[fd] | g3 "^D.C."g2 |]


